frontend/src/assets/icons/image-05.svg

<svg width="24" height="24" viewBox="0 0 24 24" fill="none" xmlns="http://www.w3.org/2000/svg">
<g id="image-05">
<path id="Icon" d="M19 21H20.0104C20.9816 21 21.4671 21 21.7348 20.7975C21.968 20.6211 22.1123 20.3515 22.1297 20.0596C22.1497 19.7246 21.8804 19.3205 21.3417 18.5125L18.3313 13.9969C17.8862 13.3292 17.6636 12.9954 17.3831 12.8791C17.1378 12.7773 16.8622 12.7773 16.6169 12.8791C16.3364 12.9954 16.1139 13.3292 15.6687 13.9969L14.9245 15.1132M19 21L11.3155 9.90018C10.8736 9.26182 10.6526 8.94264 10.3766 8.83044C10.1351 8.73228 9.8649 8.73228 9.62344 8.83044C9.34742 8.94264 9.12645 9.26182 8.68451 9.90018L2.73822 18.4893C2.17519 19.3025 1.89368 19.7092 1.90971 20.0473C1.92366 20.3419 2.06688 20.6152 2.30109 20.7943C2.57002 21 3.06459 21 4.05373 21H19ZM21 6C21 7.65685 19.6569 9 18 9C16.3432 9 15 7.65685 15 6C15 4.34315 16.3432 3 18 3C19.6569 3 21 4.34315 21 6Z" stroke="black" stroke-width="2" stroke-linecap="round" stroke-linejoin="round"/>
</g>
</svg>

<svg xmlns="http://www.w3.org/2000/svg" width="24" height="24" fill="none" viewBox="0 0 24 24">
  <path stroke="#000" stroke-linecap="round" stroke-linejoin="round" stroke-width="2" d="M19 21h1.01c.972 0 1.457 0 1.725-.203a1 1 0 0 0 .395-.737c.02-.335-.25-.74-.788-1.547l-3.01-4.516c-.446-.668-.668-1.002-.949-1.118a1 1 0 0 0-.766 0c-.28.116-.503.45-.948 1.118l-.745 1.116M19 21 11.316 9.9c-.442-.638-.663-.957-.94-1.07a1 1 0 0 0-.753 0c-.276.113-.497.432-.938 1.07l-5.947 8.59c-.563.813-.844 1.22-.828 1.557a1 1 0 0 0 .391.747C2.57 21 3.065 21 4.054 21H19Zm2-15a3 3 0 1 1-6 0 3 3 0 0 1 6 0Z"/>
</svg>
